X:1
T:Transfiguration (Anketell), CM
T:Transfiguration (Anketell), CM 
T:John Anketell, 1895
T:Public Domain Courtesy of the Cyber Hymnal™
C:John Anketell, 1895
Z:Public Domain
Z:Courtesy of the Cyber Hymnal™
%%score ( 1 2 ) ( 3 4 )
L:1/8
Q:1/4=112
M:4/4
K:D
V:1 treble 
V:2 treble 
V:3 bass 
V:4 bass 
V:1
 [DA]2 | [DF]2 [CG]2 [DA]2 [Fd]2 | [Gc]2 B2 [EA]2 [FA]2 | [FB]2 [EA]2 [DF]2 D2 | [CE]6 [EA]2 | %5
 [DF]2 [Dd]2 [Gc]2 [FB]2 | [EA]2 [CG]2 [DF]2 [DB]2 | [DE]2 [DF]2 (AG) [CE]2 | D6 |] %9
V:2
 x2 | x8 | x2 (GF) x4 | x6 D2 | x8 | x8 | x8 | x4 D2 x2 | D6 |] %9
V:3
 [D,F,]2 | [D,A,]2 [E,G,]2 F,2 [B,,B,]2 | [E,C]2 [D,D]2 [C,E]2 [D,D]2 | %3
 [B,,D]2 [C,A,]2 [D,A,]2 [B,,^G,]2 | [A,,A,]6 [C,A,]2 | [D,A,]2 [B,,B,]2 (G,A,) [D,B,]2 | %6
 [C,E,]2 [A,,A,]2 [D,A,]2 [G,,G,]2 | [G,B,]2 [F,A,]2 [E,B,]2 [A,,G,]2 | [D,F,]6 |] %9
V:4
 x2 | x4 F,2 x2 | x8 | x8 | x8 | x4 E,2 x2 | x8 | x8 | x6 |] %9

